X: 83
T: No_173_Steal_Partner_Dance_Song_(b).krn
N: Derived from No_173_Steal_Partner_Dance_Song_(b).krn
%%abc-version 2.0
%%abcx-abcm2ps-target-version 5.9.1 (29 Sep 2008)
%%abc-creator hum2abc beta
%%abcx-conversion-date 2019/03/15 08:38:45
%%humdrum-veritas 3067489208
%%humdrum-veritas-data 2606721252
%%linebreak <none>
%%barnumbers 0
L: 1/16
M: 3/4
K: G clef=bass
[K:clef=bass][M:3/4]G,G,D2 D2(DB,) B,3G, ||  
[M:2/4]B,B,B,2 D2B,2 | 
(B,A,)B,A,G,4 | 
G,G,G,2 A,G,B,2 | 
B,A,B,A, (G,3D,) | 
G,G,G,2 z2 D,3/D,/ | 
G,4G,2 z2 | 
G,G,G,2 A,G,B,2 | 
B,3/A,/(B,A,)G,4 | 
G,4z2 G,2 ||  
[M:3/4]D2D2 D2D2 (B,3G,) ||  
[M:2/4]B,B,B,2 D2B,2 | 
(B,A,)B,A, G,2 z2 | 
G,G,G,2 A,G,B,2 ||  
[M:3/4]A,2A,2G,4z2 D,2 ||  
[M:2/4]G,4D,3D, ||  
[M:3/4]G,4G,4G,2G,G,/G,/ | 
[M:2/4](D7B,) | 
D4z4 |]  



